Newaita-dark/apps/22/vmware-netcfg.svg

<?xml version="1.0" encoding="UTF-8"?>
<svg xmlns="http://www.w3.org/2000/svg" xmlns:xlink="http://www.w3.org/1999/xlink" width="22pt" height="22pt" viewBox="0 0 22 22" version="1.1">
<defs>
<linearGradient id="linear0" gradientUnits="userSpaceOnUse" x1="328.96524" y1="233.5" x2="328.96524" y2="254.666672" gradientTransform="matrix(0.108563,0,0,0.0429729,-29.801076,9.239163)">
<stop offset="0" style="stop-color:rgb(0%,0%,0%);stop-opacity:0.27451;"/>
<stop offset="1" style="stop-color:rgb(0%,0%,0%);stop-opacity:0;"/>
</linearGradient>
<radialGradient id="radial0" gradientUnits="userSpaceOnUse" cx="450.908936" cy="189.579361" fx="450.908936" fy="189.579361" r="21.166656" gradientTransform="matrix(0.000000119742,-0.0537161,-0.0966889,-0.0000000698078,30.837067,43.72179)">
<stop offset="0" style="stop-color:rgb(0%,0%,0%);stop-opacity:0.313725;"/>
<stop offset="0.222222" style="stop-color:rgb(0%,0%,0%);stop-opacity:0.27451;"/>
<stop offset="1" style="stop-color:rgb(0%,0%,0%);stop-opacity:0;"/>
</radialGradient>
<radialGradient id="radial1" gradientUnits="userSpaceOnUse" cx="450.908936" cy="189.579361" fx="450.908936" fy="189.579361" r="21.166656" gradientTransform="matrix(-0.000000119742,0.0537161,0.0966889,0.0000000698078,-14.009607,-5.175143)">
<stop offset="0" style="stop-color:rgb(0%,0%,0%);stop-opacity:0.313725;"/>
<stop offset="0.222222" style="stop-color:rgb(0%,0%,0%);stop-opacity:0.27451;"/>
<stop offset="1" style="stop-color:rgb(0%,0%,0%);stop-opacity:0;"/>
</radialGradient>
<radialGradient id="radial2" gradientUnits="userSpaceOnUse" cx="450.908936" cy="189.579361" fx="450.908936" fy="189.579361" r="21.166656" gradientTransform="matrix(-0.000000119742,-0.0537161,0.0966889,-0.0000000698078,-14.009607,43.72179)">
<stop offset="0" style="stop-color:rgb(0%,0%,0%);stop-opacity:0.313725;"/>
<stop offset="0.222222" style="stop-color:rgb(0%,0%,0%);stop-opacity:0.27451;"/>
<stop offset="1" style="stop-color:rgb(0%,0%,0%);stop-opacity:0;"/>
</radialGradient>
<radialGradient id="radial3" gradientUnits="userSpaceOnUse" cx="450.908936" cy="189.579361" fx="450.908936" fy="189.579361" r="21.166656" gradientTransform="matrix(0.000000119742,0.0537161,-0.0966889,0.0000000698078,30.837065,-5.175143)">
<stop offset="0" style="stop-color:rgb(0%,0%,0%);stop-opacity:0.313725;"/>
<stop offset="0.222222" style="stop-color:rgb(0%,0%,0%);stop-opacity:0.27451;"/>
<stop offset="1" style="stop-color:rgb(0%,0%,0%);stop-opacity:0;"/>
</radialGradient>
<linearGradient id="linear1" gradientUnits="userSpaceOnUse" x1="760" y1="1695.118164" x2="760" y2="615.118103" gradientTransform="matrix(0.0113699,0,0,0.0113699,0,0)">
<stop offset="0" style="stop-color:rgb(25.882353%,64.705882%,96.078431%);stop-opacity:1;"/>
<stop offset="1" style="stop-color:rgb(39.215686%,70.980392%,96.470588%);stop-opacity:1;"/>
</linearGradient>
<linearGradient id="linear2" gradientUnits="userSpaceOnUse" x1="1200" y1="1255.118164" x2="1200" y2="175.118118" gradientTransform="matrix(0.0113699,0,0,0.0113699,0,0)">
<stop offset="0" style="stop-color:rgb(100%,65.490196%,14.901961%);stop-opacity:1;"/>
<stop offset="1" style="stop-color:rgb(100%,71.764706%,30.196078%);stop-opacity:1;"/>
</linearGradient>
</defs>
<g id="surface1">
<path style=" stroke:none;fill-rule:nonzero;fill:url(#linear0);" d="M 4.09375 19.273438 L 12.734375 19.273438 L 12.734375 20.183594 L 4.09375 20.183594 Z M 4.09375 19.273438 "/>
<path style=" stroke:none;fill-rule:nonzero;fill:url(#radial0);" d="M 12.734375 19.273438 L 14.554688 19.273438 L 14.554688 18.363281 L 12.734375 18.363281 Z M 12.734375 19.273438 "/>
<path style=" stroke:none;fill-rule:nonzero;fill:url(#radial1);" d="M 4.09375 19.273438 L 2.273438 19.273438 L 2.273438 20.183594 L 4.09375 20.183594 Z M 4.09375 19.273438 "/>
<path style=" stroke:none;fill-rule:nonzero;fill:url(#radial2);" d="M 4.09375 19.273438 L 2.273438 19.273438 L 2.273438 18.363281 L 4.09375 18.363281 Z M 4.09375 19.273438 "/>
<path style=" stroke:none;fill-rule:nonzero;fill:url(#radial3);" d="M 12.734375 19.273438 L 14.554688 19.273438 L 14.554688 20.183594 L 12.734375 20.183594 Z M 12.734375 19.273438 "/>
<path style=" stroke:none;fill-rule:nonzero;fill:url(#linear1);" d="M 3.636719 6.992188 C 2.882812 6.992188 2.273438 7.601562 2.273438 8.359375 L 2.273438 17.910156 C 2.273438 18.664062 2.882812 19.273438 3.636719 19.273438 L 13.1875 19.273438 C 13.945312 19.273438 14.554688 18.664062 14.554688 17.910156 L 14.554688 8.921875 L 11.824219 11.648438 L 11.824219 15.636719 C 11.824219 16.140625 11.417969 16.542969 10.914062 16.542969 L 5.914062 16.542969 C 5.410156 16.542969 5.003906 16.140625 5.003906 15.636719 L 5.003906 10.632812 C 5.003906 10.128906 5.410156 9.722656 5.914062 9.722656 L 9.890625 9.722656 L 12.621094 6.992188 Z M 3.636719 6.992188 "/>
<path style=" stroke:none;fill-rule:nonzero;fill:url(#linear2);" d="M 8.640625 1.992188 C 7.886719 1.992188 7.277344 2.597656 7.277344 3.355469 L 7.277344 6.992188 L 10.003906 6.992188 L 10.003906 5.628906 C 10.003906 5.125 10.410156 4.71875 10.914062 4.71875 L 15.917969 4.71875 C 16.421875 4.71875 16.828125 5.125 16.828125 5.628906 L 16.828125 10.632812 C 16.828125 11.136719 16.421875 11.542969 15.917969 11.542969 L 11.933594 11.542969 L 9.203125 14.269531 L 18.191406 14.269531 C 18.949219 14.269531 19.554688 13.660156 19.554688 12.90625 L 19.554688 3.355469 C 19.554688 2.597656 18.949219 1.992188 18.191406 1.992188 Z M 7.277344 9.722656 L 7.277344 12.335938 L 9.890625 9.722656 Z M 7.277344 9.722656 "/>
<path style=" stroke:none;fill-rule:nonzero;fill:rgb(100%,100%,100%);fill-opacity:0.470588;" d="M 8.640625 1.992188 C 7.886719 1.992188 7.277344 2.597656 7.277344 3.355469 L 7.277344 3.582031 C 7.277344 2.828125 7.886719 2.21875 8.640625 2.21875 L 18.191406 2.21875 C 18.949219 2.21875 19.554688 2.828125 19.554688 3.582031 L 19.554688 3.355469 C 19.554688 2.597656 18.949219 1.992188 18.191406 1.992188 Z M 16.828125 10.632812 C 16.828125 11.136719 16.421875 11.542969 15.917969 11.542969 L 11.933594 11.542969 L 9.203125 14.269531 L 9.429688 14.269531 L 11.933594 11.769531 L 15.917969 11.769531 C 16.421875 11.769531 16.828125 11.363281 16.828125 10.859375 Z M 16.828125 10.632812 "/>
<path style=" stroke:none;fill-rule:nonzero;fill:rgb(12.941177%,12.941177%,12.941177%);fill-opacity:1;" d="M 8.640625 1.925781 C 7.851562 1.925781 7.210938 2.566406 7.210938 3.355469 L 7.210938 6.992188 C 7.210938 7.03125 7.242188 7.058594 7.277344 7.058594 L 10.003906 7.058594 C 10.042969 7.058594 10.070312 7.03125 10.070312 6.992188 L 10.070312 5.628906 C 10.070312 5.160156 10.445312 4.785156 10.914062 4.785156 L 15.917969 4.785156 C 16.386719 4.785156 16.761719 5.160156 16.761719 5.628906 L 16.761719 10.632812 C 16.761719 11.101562 16.386719 11.476562 15.917969 11.476562 L 11.933594 11.476562 C 11.914062 11.476562 11.898438 11.484375 11.886719 11.496094 L 9.15625 14.226562 C 9.140625 14.242188 9.132812 14.269531 9.144531 14.296875 C 9.152344 14.320312 9.175781 14.335938 9.203125 14.335938 L 18.191406 14.335938 C 18.980469 14.335938 19.621094 13.695312 19.621094 12.90625 L 19.621094 3.355469 C 19.621094 2.566406 18.980469 1.925781 18.191406 1.925781 Z M 8.640625 2.054688 L 18.191406 2.054688 C 18.914062 2.054688 19.492188 2.632812 19.492188 3.355469 L 19.492188 12.90625 C 19.492188 13.628906 18.914062 14.207031 18.191406 14.207031 L 9.359375 14.207031 L 11.957031 11.605469 L 15.917969 11.605469 C 16.457031 11.605469 16.890625 11.171875 16.890625 10.632812 L 16.890625 5.628906 C 16.890625 5.089844 16.457031 4.65625 15.917969 4.65625 L 10.914062 4.65625 C 10.375 4.65625 9.941406 5.089844 9.941406 5.628906 L 9.941406 6.929688 L 7.339844 6.929688 L 7.339844 3.355469 C 7.339844 2.632812 7.917969 2.054688 8.640625 2.054688 Z M 7.277344 9.65625 C 7.242188 9.65625 7.210938 9.6875 7.210938 9.722656 L 7.210938 12.335938 C 7.210938 12.363281 7.226562 12.386719 7.253906 12.398438 C 7.277344 12.40625 7.304688 12.402344 7.324219 12.382812 L 9.9375 9.769531 C 9.957031 9.75 9.960938 9.722656 9.953125 9.699219 C 9.941406 9.675781 9.917969 9.65625 9.890625 9.65625 Z M 7.339844 9.785156 L 9.734375 9.785156 L 7.339844 12.183594 Z M 7.339844 9.785156 "/>
<path style=" stroke:none;fill-rule:nonzero;fill:rgb(0%,0%,0%);fill-opacity:0.235294;" d="M 10.914062 4.492188 C 10.410156 4.492188 10.003906 4.898438 10.003906 5.402344 L 10.003906 5.628906 C 10.003906 5.125 10.410156 4.71875 10.914062 4.71875 L 15.917969 4.71875 C 16.421875 4.71875 16.828125 5.125 16.828125 5.628906 L 16.828125 5.402344 C 16.828125 4.898438 16.421875 4.492188 15.917969 4.492188 Z M 9.664062 9.722656 L 7.277344 12.109375 L 7.277344 12.335938 L 9.890625 9.722656 Z M 19.554688 12.679688 C 19.554688 13.433594 18.949219 14.042969 18.191406 14.042969 L 9.429688 14.042969 L 9.203125 14.269531 L 18.191406 14.269531 C 18.949219 14.269531 19.554688 13.660156 19.554688 12.90625 Z M 19.554688 12.679688 "/>
<path style=" stroke:none;fill-rule:nonzero;fill:rgb(100%,100%,100%);fill-opacity:0.392157;" d="M 3.636719 6.992188 C 2.882812 6.992188 2.273438 7.601562 2.273438 8.359375 L 2.273438 8.585938 C 2.273438 7.828125 2.882812 7.222656 3.636719 7.222656 L 12.394531 7.222656 L 12.621094 6.992188 Z M 14.554688 8.921875 L 12.050781 11.484375 L 12.222656 11.484375 L 14.554688 9.148438 Z M 5.003906 15.636719 L 5.003906 15.863281 C 5.003906 16.367188 5.410156 16.773438 5.914062 16.773438 L 10.914062 16.773438 C 11.417969 16.773438 11.824219 16.367188 11.824219 15.863281 L 11.824219 15.636719 C 11.824219 16.140625 11.417969 16.542969 10.914062 16.542969 L 5.914062 16.542969 C 5.410156 16.542969 5.003906 16.140625 5.003906 15.636719 Z M 5.003906 15.636719 "/>
<path style=" stroke:none;fill-rule:nonzero;fill:rgb(0%,0%,0%);fill-opacity:0.235294;" d="M 12.398438 6.992188 L 9.890625 9.5 L 5.914062 9.5 C 5.410156 9.5 5.003906 9.90625 5.003906 10.410156 L 5.003906 10.632812 C 5.003906 10.128906 5.410156 9.722656 5.914062 9.722656 L 9.890625 9.722656 L 12.621094 6.992188 Z M 2.273438 17.6875 L 2.273438 17.910156 C 2.273438 18.664062 2.882812 19.273438 3.636719 19.273438 L 13.1875 19.273438 C 13.945312 19.273438 14.554688 18.664062 14.554688 17.910156 L 14.554688 17.6875 C 14.554688 18.441406 13.945312 19.050781 13.1875 19.050781 L 3.636719 19.050781 C 2.882812 19.050781 2.273438 18.441406 2.273438 17.6875 Z M 2.273438 17.6875 "/>
<path style=" stroke:none;fill-rule:nonzero;fill:rgb(12.941177%,12.941177%,12.941177%);fill-opacity:1;" d="M 3.636719 6.929688 C 2.847656 6.929688 2.210938 7.566406 2.210938 8.359375 L 2.210938 17.910156 C 2.210938 18.699219 2.847656 19.335938 3.636719 19.335938 L 13.1875 19.335938 C 13.980469 19.335938 14.617188 18.699219 14.617188 17.910156 L 14.617188 14.269531 L 14.488281 14.269531 L 14.488281 17.910156 C 14.488281 18.628906 13.910156 19.207031 13.1875 19.207031 L 3.636719 19.207031 C 2.917969 19.207031 2.339844 18.628906 2.339844 17.910156 L 2.339844 8.359375 C 2.339844 7.636719 2.917969 7.058594 3.636719 7.058594 L 12.464844 7.058594 L 9.863281 9.65625 L 5.914062 9.65625 C 5.375 9.65625 4.9375 10.09375 4.9375 10.632812 L 4.9375 15.636719 C 4.9375 16.171875 5.375 16.609375 5.914062 16.609375 L 10.914062 16.609375 C 11.453125 16.609375 11.890625 16.171875 11.890625 15.636719 L 11.890625 14.269531 L 11.761719 14.269531 L 11.761719 15.636719 C 11.761719 16.105469 11.382812 16.480469 10.914062 16.480469 L 5.914062 16.480469 C 5.441406 16.480469 5.066406 16.105469 5.066406 15.636719 L 5.066406 10.632812 C 5.066406 10.164062 5.441406 9.785156 5.914062 9.785156 L 9.890625 9.785156 C 9.910156 9.785156 9.925781 9.78125 9.9375 9.769531 L 12.667969 7.039062 C 12.683594 7.019531 12.691406 6.992188 12.679688 6.96875 C 12.671875 6.945312 12.648438 6.929688 12.621094 6.929688 Z M 14.550781 8.855469 C 14.535156 8.855469 14.519531 8.863281 14.507812 8.875 L 11.839844 11.542969 L 12.023438 11.542969 L 14.488281 9.074219 L 14.488281 11.542969 L 14.617188 11.542969 L 14.617188 8.921875 C 14.617188 8.902344 14.609375 8.886719 14.597656 8.875 C 14.585938 8.863281 14.570312 8.855469 14.550781 8.855469 Z M 14.550781 8.855469 "/>
</g>
</svg>

<svg xmlns="http://www.w3.org/2000/svg" width="22pt" height="22pt" viewBox="0 0 22 22"><defs><linearGradient id="a" gradientUnits="userSpaceOnUse" x1="328.965" y1="233.5" x2="328.965" y2="254.667" gradientTransform="matrix(.10856 0 0 .04297 -29.801 9.24)"><stop offset="0" stop-opacity=".275"/><stop offset="1" stop-opacity="0"/></linearGradient><radialGradient id="b" gradientUnits="userSpaceOnUse" cx="450.909" cy="189.579" fx="450.909" fy="189.579" r="21.167" gradientTransform="matrix(0 -.05372 -.09669 0 30.837 43.722)"><stop offset="0" stop-opacity=".314"/><stop offset=".222" stop-opacity=".275"/><stop offset="1" stop-opacity="0"/></radialGradient><radialGradient id="c" gradientUnits="userSpaceOnUse" cx="450.909" cy="189.579" fx="450.909" fy="189.579" r="21.167" gradientTransform="matrix(0 .05372 .09669 0 -14.01 -5.175)"><stop offset="0" stop-opacity=".314"/><stop offset=".222" stop-opacity=".275"/><stop offset="1" stop-opacity="0"/></radialGradient><radialGradient id="d" gradientUnits="userSpaceOnUse" cx="450.909" cy="189.579" fx="450.909" fy="189.579" r="21.167" gradientTransform="matrix(0 -.05372 .09669 0 -14.01 43.722)"><stop offset="0" stop-opacity=".314"/><stop offset=".222" stop-opacity=".275"/><stop offset="1" stop-opacity="0"/></radialGradient><radialGradient id="e" gradientUnits="userSpaceOnUse" cx="450.909" cy="189.579" fx="450.909" fy="189.579" r="21.167" gradientTransform="matrix(0 .05372 -.09669 0 30.837 -5.175)"><stop offset="0" stop-opacity=".314"/><stop offset=".222" stop-opacity=".275"/><stop offset="1" stop-opacity="0"/></radialGradient><linearGradient id="f" gradientUnits="userSpaceOnUse" x1="760" y1="1695.118" x2="760" y2="615.118" gradientTransform="rotate(.24) scale(.01137)"><stop offset="0" stop-color="#42a5f5"/><stop offset="1" stop-color="#64b5f6"/></linearGradient><linearGradient id="g" gradientUnits="userSpaceOnUse" x1="1200" y1="1255.118" x2="1200" y2="175.118" gradientTransform="rotate(.24) scale(.01137)"><stop offset="0" stop-color="#ffa726"/><stop offset="1" stop-color="#ffb74d"/></linearGradient></defs><path d="M4.094 19.273h8.64v.91h-8.64zm0 0" fill="url(#a)"/><path d="M12.734 19.273h1.82v-.91h-1.82zm0 0" fill="url(#b)"/><path d="M4.094 19.273h-1.82v.91h1.82zm0 0" fill="url(#c)"/><path d="M4.094 19.273h-1.82v-.91h1.82zm0 0" fill="url(#d)"/><path d="M12.734 19.273h1.82v.91h-1.82zm0 0" fill="url(#e)"/><path d="M3.637 6.992c-.754 0-1.364.61-1.364 1.367v9.551c0 .754.61 1.363 1.364 1.363h9.55c.758 0 1.368-.609 1.368-1.363V8.922l-2.73 2.726v3.989a.905.905 0 0 1-.91.906h-5a.905.905 0 0 1-.911-.906v-5.004c0-.504.406-.91.91-.91h3.977l2.73-2.73zm0 0" fill="url(#f)"/><path d="M8.64 1.992a1.36 1.36 0 0 0-1.363 1.363v3.637h2.727V5.63c0-.504.406-.91.91-.91h5.004c.504 0 .91.406.91.91v5.004c0 .504-.406.91-.91.91h-3.984l-2.73 2.727h8.987a1.36 1.36 0 0 0 1.364-1.364v-9.55c0-.758-.606-1.364-1.364-1.364zm-1.363 7.73v2.614l2.614-2.613zm0 0" fill="url(#g)"/><path d="M8.64 1.992a1.36 1.36 0 0 0-1.363 1.363v.227c0-.754.61-1.363 1.364-1.363h9.55c.758 0 1.364.61 1.364 1.363v-.227c0-.757-.606-1.363-1.364-1.363zm8.188 8.64c0 .505-.406.911-.91.911h-3.984l-2.73 2.727h.226l2.504-2.5h3.984c.504 0 .91-.407.91-.91zm0 0" fill="#fff" fill-opacity=".471"/><path d="M8.64 1.926c-.788 0-1.43.64-1.43 1.43v3.636c0 .04.032.067.067.067h2.727c.039 0 .066-.028.066-.067V5.63a.84.84 0 0 1 .844-.844h5.004a.84.84 0 0 1 .844.844v5.004a.84.84 0 0 1-.844.844h-3.984a.065.065 0 0 0-.047.02l-2.73 2.73a.064.064 0 0 0-.012.07.06.06 0 0 0 .058.039h8.988c.79 0 1.43-.64 1.43-1.43v-9.55c0-.79-.64-1.43-1.43-1.43zm0 .129h9.551c.723 0 1.301.578 1.301 1.3v9.551c0 .723-.578 1.301-1.3 1.301H9.358l2.598-2.602h3.961a.97.97 0 0 0 .973-.972V5.629a.97.97 0 0 0-.973-.973h-5.004a.97.97 0 0 0-.973.973v1.3H7.34V3.356c0-.722.578-1.3 1.3-1.3zM7.278 9.656a.068.068 0 0 0-.066.067v2.613c0 .027.016.05.043.062.023.008.05.004.07-.015L9.938 9.77a.068.068 0 0 0 .015-.07c-.012-.024-.035-.044-.062-.044zm.063.13h2.394L7.34 12.183zm0 0" fill="#212121"/><path d="M10.914 4.492a.909.909 0 0 0-.91.91v.227c0-.504.406-.91.91-.91h5.004c.504 0 .91.406.91.91v-.227a.909.909 0 0 0-.91-.91zm-1.25 5.23L7.277 12.11v.227l2.614-2.613zm9.89 2.958a1.36 1.36 0 0 1-1.363 1.363H9.43l-.227.227h8.988a1.36 1.36 0 0 0 1.364-1.364zm0 0" fill-opacity=".235"/><path d="M3.637 6.992c-.754 0-1.364.61-1.364 1.367v.227c0-.758.61-1.363 1.364-1.363h8.758l.226-.23zm10.918 1.93l-2.504 2.562h.172l2.332-2.336zm-9.551 6.715v.226c0 .504.406.91.91.91h5c.504 0 .91-.406.91-.91v-.226a.905.905 0 0 1-.91.906h-5a.905.905 0 0 1-.91-.906zm0 0" fill="#fff" fill-opacity=".392"/><path d="M12.398 6.992L9.891 9.5H5.914a.909.909 0 0 0-.91.91v.223c0-.504.406-.91.91-.91h3.977l2.73-2.73zM2.273 17.688v.222c0 .754.61 1.363 1.364 1.363h9.55c.758 0 1.368-.609 1.368-1.363v-.223c0 .754-.61 1.364-1.367 1.364H3.636c-.754 0-1.364-.61-1.364-1.363zm0 0" fill-opacity=".235"/><path d="M3.637 6.93c-.79 0-1.426.636-1.426 1.43v9.55c0 .79.637 1.426 1.426 1.426h9.55c.793 0 1.43-.637 1.43-1.426v-3.64h-.129v3.64c0 .719-.578 1.297-1.3 1.297H3.636A1.294 1.294 0 0 1 2.34 17.91V8.36c0-.723.578-1.301 1.297-1.301h8.828L9.863 9.656H5.914a.977.977 0 0 0-.976.977v5.004c0 .535.437.972.976.972h5c.54 0 .977-.437.977-.972V14.27h-.13v1.367a.844.844 0 0 1-.847.843h-5a.841.841 0 0 1-.848-.843v-5.004c0-.469.375-.848.848-.848h3.977c.02 0 .035-.004.046-.015l2.731-2.73c.016-.02.023-.048.012-.071a.06.06 0 0 0-.059-.04zM14.55 8.855a.063.063 0 0 0-.043.02l-2.668 2.668h.183l2.465-2.469v2.469h.13V8.922a.065.065 0 0 0-.02-.047.065.065 0 0 0-.047-.02zm0 0" fill="#212121"/></svg>
